X: 4
T:Julia Delaney
M: C
L: 1/8
R: reel
K: Dm
"Dm"dcAG F2DF| "C"E2CE "Dm"FDFA |dcAG F2DF| "Gm"Add^c "A"defe|
"Dm"dcAG F2DF| "C"EDCE "Dm"FDD^c |dcAG "Bb"FDDF |1 "Am"Add^c "Dm"d4:|[2  "Am"Add^c "Dm"d3e ||
|: "Dm" f2fe fagf | "C" ecgc acgc| "Dm"fede fagf| "Am"edce "Dm"d^cde|
"Dm" f2fe fagf | "C" ecgc acgc| "Dm"fedf "Bb"edcB |1 "Am"Add^c "Dm"d3e:|[2 "Am"Add^c "Dm"d4 || 
%%text 08/29/07 

#include "RightHeader.h"
%%text Set 91 (NEFFA 08 Old-time set)
%%scale .8
